src/custom/assets/cow-swap/order-presignature-pending.svg

<svg fill="none" height="21" viewBox="0 0 42 21" width="42" xmlns="http://www.w3.org/2000/svg"><path d="m11.5769 14.0385c-2.03075 0-3.69229-1.5231-3.69229-3.3847 0-1.86149 1.66154-3.38457 3.69229-3.38457 2.0308 0 3.6923 1.52308 3.6923 3.38457 0 1.8616-1.6615 3.3847-3.6923 3.3847zm10.3385-6.76927c-1.4769-3.89231-5.5385-6.76923-10.3385-6.76923-6.09228 0-11.0769 4.56923-11.0769 10.1538 0 5.5847 4.98462 10.1539 11.0769 10.1539 4.8 0 8.8616-2.8769 10.3385-6.7692h6.2769v6.7692h7.3846v-6.7692h5.5385v-6.76927z" fill="#000"/></svg>

<svg width="42" height="21" viewBox="0 0 42 21" fill="none" xmlns="http://www.w3.org/2000/svg">
<path d="M11.5769 14.0385C9.54615 14.0385 7.88461 12.5154 7.88461 10.6538C7.88461 8.79231 9.54615 7.26923 11.5769 7.26923C13.6077 7.26923 15.2692 8.79231 15.2692 10.6538C15.2692 12.5154 13.6077 14.0385 11.5769 14.0385ZM21.9154 7.26923C20.4385 3.37692 16.3769 0.5 11.5769 0.5C5.48462 0.5 0.5 5.06923 0.5 10.6538C0.5 16.2385 5.48462 20.8077 11.5769 20.8077C16.3769 20.8077 20.4385 17.9308 21.9154 14.0385H28.1923V20.8077H35.5769V14.0385H41.1154V7.26923H21.9154Z" fill="black"/>
</svg>
